tablet-cellphone.svg

<svg fill="currentColor" viewBox="0 0 24 24"><path d="M3 4h17a2 2 0 0 1 2 2v2h-4V6H5v12h9v2H3a2 2 0 0 1-2-2V6a2 2 0 0 1 2-2m14 6h6a1 1 0 0 1 1 1v10a1 1 0 0 1-1 1h-6a1 1 0 0 1-1-1V11a1 1 0 0 1 1-1m1 2v7h4v-7z"/></svg>

<svg  viewBox="0 0 24 24" fill="currentColor"><path  d="M3,4H20A2,2 0 0,1 22,6V8H18V6H5V18H14V20H3A2,2 0 0,1 1,18V6A2,2 0 0,1 3,4M17,10H23A1,1 0 0,1 24,11V21A1,1 0 0,1 23,22H17A1,1 0 0,1 16,21V11A1,1 0 0,1 17,10M18,12V19H22V12H18Z"/></svg>
